X:1
T:Title
%%score ( 1 2 ) { 3 | 4 }
L:1/8
Q:1/4=85
M:6/8
K:Ab
V:1 treble nm="Grand Piano, Soprano"
V:2 treble 
V:3 bass nm="Choir Pad, Swing Open the Beautiful"
V:4 bass 
V:1
 [CA][Ec]>[DB] [CA][Ec][DB] | [CA]BA [DF] [CE]2 | [CE]/[CE]<[EA][EA]/ [EA][Ac][EB] | %3
w: By~John~Daniel~Patton * * * * *|||
 [FA] [GB]2- [GB]2- [GB]/ z/ | [EB][Ec]>[DB] [CA][Ec][DB] | [CA]BA [DF] [CE]2 | %6
w: |||
 [CE]/[CE]/ [DF]2 [FA] [EA]2 | [DG]/[DG]/ [CA]2- [CA]2- [CA]/ z/ | [Ec][Ae]>[Ae] [Ae][Af][Ae] | %9
w: |||
 [Ac] [EA]2 [FA] [EA]2 | A[GB]>[GB] [GB][GB][FA] | [GB] [Ac]2- [Ac]2- [Ac]/ z/ | %12
w: |||
 [Ec][Ae]>[Ae] [Ae][Af][Ae] | [Ac] [EA]2 [FA] [EA]2 | [EA][Ac]>[Ac] [AB] [GB]2 | %15
w: |||
 [EB] [EA]2- [EA]3- | [EA]3 z3 |] %17
w: ||
V:2
 x6 | z D2 z3 | x6 | x6 | x6 | z D2 z3 | x6 | x6 | x6 | x6 | x6 | x6 | x6 | x6 | x6 | x6 | x6 |] %17
V:3
 A,A,>E, E,A,A, | A, F,2 A, A,2 | A,/A,<[K:treble]CC/ CEE | =D E2- E2- E/ z/ | G,A,>E, E,A,A, | %5
 A, F,2 A, A,2 | A,/A,/ A,2 D C2 | B,/B,/ A,2- A,2- A,/ z/ | A,[K:treble]C>C CDC | E C2 D C2 | %10
 EE>E E E2 | E E2- E2- E/ z/ | A,C>C CDC | E C2 D C2 | EE>E E E2 | D C2- C3- | C3 z3 |] %17
V:4
 A,,A,,>A,, A,,A,,A,, | A,, D,2 D, A,,2 | z A,>A, A,A,G, | F, E,2- E,2- E,/ z/ | %4
 E,A,,>A,, A,,A,,A,, | A,, D,2 D, A,,2 | A,,/A,,/ D,2 D, E,2 | E,/E,/ A,,2- A,,2- A,,/ z/ | %8
 z A,>A, A,A,A, | A, A,2 A, A,2 | C,E,>E, E, E,2 | E, A,2- A,2- A,/ z/ | z A,>A, A,A,A, | %13
 A, A,2 A, A,2 | C,E,>E, E, E,2 | E, A,,2- A,,3- | A,,3 z3 |] %17

